svgs/flightradar24.svg

<?xml version="1.0" encoding="UTF-8" standalone="no"?>
<!-- Created with Inkscape (http://www.inkscape.org/) -->

<svg
   width="192"
   height="192"
   viewBox="0 0 50.799999 50.800001"
   version="1.1"
   id="svg5"
   inkscape:version="1.2 (dc2aedaf03, 2022-05-15)"
   sodipodi:docname="flightradar24.svg"
   xmlns:inkscape="http://www.inkscape.org/namespaces/inkscape"
   xmlns:sodipodi="http://sodipodi.sourceforge.net/DTD/sodipodi-0.dtd"
   xmlns="http://www.w3.org/2000/svg"
   xmlns:svg="http://www.w3.org/2000/svg">
  <sodipodi:namedview
     id="namedview7"
     pagecolor="#ffffff"
     bordercolor="#111111"
     borderopacity="1"
     inkscape:pageshadow="0"
     inkscape:pageopacity="0"
     inkscape:pagecheckerboard="1"
     inkscape:document-units="px"
     showgrid="false"
     units="px"
     inkscape:object-nodes="true"
     inkscape:snap-nodes="true"
     inkscape:zoom="2.8284271"
     inkscape:cx="101.82338"
     inkscape:cy="150.26019"
     inkscape:window-width="1920"
     inkscape:window-height="1048"
     inkscape:window-x="1920"
     inkscape:window-y="32"
     inkscape:window-maximized="1"
     inkscape:current-layer="layer3"
     inkscape:snap-bbox="true"
     inkscape:snap-bbox-edge-midpoints="true"
     showguides="true"
     inkscape:guide-bbox="true"
     inkscape:snap-bbox-midpoints="true"
     inkscape:snap-smooth-nodes="true"
     inkscape:snap-object-midpoints="true"
     inkscape:snap-midpoints="true"
     inkscape:object-paths="false"
     inkscape:showpageshadow="0"
     inkscape:deskcolor="#d1d1d1">
    <sodipodi:guide
       position="25.399999,46.8313"
       orientation="1,0"
       id="guide1272"
       inkscape:locked="false" />
    <sodipodi:guide
       position="3.9687004,25.400001"
       orientation="0,-1"
       id="guide1274"
       inkscape:locked="false" />
  </sodipodi:namedview>
  <defs
     id="defs2">
    <clipPath
       clipPathUnits="userSpaceOnUse"
       id="clipPath1083">
      <rect
         style="fill:#000000;fill-opacity:1;stroke:#ff9800;stroke-width:0.186876;stroke-miterlimit:4;stroke-dasharray:none"
         id="rect1085"
         width="37.845512"
         height="34.295624"
         x="-37.988056"
         y="-5.779016" />
    </clipPath>
    <clipPath
       clipPathUnits="userSpaceOnUse"
       id="clipPath1439">
      <path
         style="fill:#d8e1ff;fill-opacity:1;stroke-width:0.115586"
         d="m -35.074352,44.510436 c 0.0013,-0.04768 0.405151,-0.94375 0.897448,-1.99127 0.658921,-1.402069 0.970886,-1.942933 1.182394,-2.049947 0.287131,-0.145277 4.275024,-0.224795 4.275024,-0.08525 0,0.03495 -0.07863,0.215603 -0.174752,0.401468 l -0.174755,0.337939 -1.703517,0.03197 -1.70352,0.03198 -0.599519,1.213649 c -0.642991,1.301652 -0.673897,1.387033 -0.502047,1.387033 0.06165,0 0.293034,-0.391636 0.514191,-0.87031 0.510011,-1.10385 0.723892,-1.210239 2.43304,-1.210239 0.694446,0 1.217363,0.04731 1.217363,0.110149 0,0.06057 -0.06036,0.242628 -0.134138,0.404551 -0.128484,0.281995 -0.175993,0.294481 -1.126964,0.296174 -0.546055,7.94e-4 -1.054375,0.04089 -1.129604,0.08875 -0.07523,0.04785 -0.329745,0.515165 -0.565602,1.038503 l -0.428824,0.951521 h -1.13929 c -0.626608,0 -1.138227,-0.03901 -1.136928,-0.08669 z m 4.679479,-0.14641 c 0.191397,-0.60303 0.998564,-2.173483 1.220227,-2.374111 0.209978,-0.190056 0.459909,-0.230968 1.623126,-0.265716 1.45334,-0.04342 1.482187,-0.03185 1.240787,0.497975 -0.128809,0.282707 -0.174172,0.294407 -1.141706,0.294407 -0.670412,0 -1.044326,0.04835 -1.117412,0.144481 -0.06041,0.07948 -0.287843,0.547529 -0.505397,1.040149 l -0.395544,0.895664 -0.499033,1.14e-4 c -0.447826,1.11e-4 -0.491437,-0.02381 -0.425048,-0.232971 z m 3.486235,0.156046 c -0.168135,-0.168137 -0.0565,-0.62865 0.38304,-1.580012 0.340148,-0.736248 0.528487,-1.012825 0.722413,-1.060887 0.144274,-0.03573 0.938494,-0.05 1.764934,-0.03167 l 1.502617,0.03334 0.03438,0.294907 c 0.04046,0.347099 -0.578617,1.787168 -0.929092,2.161294 -0.229623,0.245115 -0.334401,0.260067 -1.822422,0.260067 -0.868333,0 -1.613468,-0.03468 -1.655849,-0.07706 z m 3.047871,-1.261769 c 0.124885,-0.291343 0.227066,-0.579702 0.227066,-0.640786 0,-0.06394 -0.355561,-0.09666 -0.837999,-0.07711 l -0.837999,0.03394 -0.255305,0.520139 c -0.140415,0.286075 -0.257446,0.559147 -0.260067,0.606827 -0.0026,0.04768 0.387186,0.08668 0.866238,0.08668 h 0.871003 z m 0.920583,1.29031 c 0,-0.02668 0.283019,-0.650841 0.628935,-1.387031 l 0.628934,-1.338519 h 1.678715 c 2.15596,0 2.149026,-0.0078 1.415555,1.593059 l -0.514622,1.123209 -0.529299,0.03512 -0.529306,0.03512 0.454629,-0.988716 0.454627,-0.988711 h -0.904454 -0.904454 l -0.437779,0.982483 -0.437777,0.982477 h -0.501853 c -0.276016,0 -0.501851,-0.02185 -0.501851,-0.04851 z m 4.54788,-0.551924 c 0.902758,-2.020847 1.035834,-2.229297 1.448392,-2.268736 0.214691,-0.02053 0.42953,0.0054 0.477419,0.05779 0.04789,0.0523 -0.190772,0.693269 -0.530358,1.42435 l -0.617428,1.329235 -0.525979,0.0353 -0.525981,0.0353 z m 1.601293,0.461735 c -0.206435,-0.206433 -0.187754,-0.279765 0.39899,-1.566193 l 0.540366,-1.184756 h 0.501244 c 0.275685,0 0.501245,0.02082 0.501245,0.04628 0,0.02548 -0.205674,0.493577 -0.457052,1.040272 l -0.457053,0.99399 h 0.902934 0.90293 l 0.476545,-1.040276 0.476545,-1.040273 h 0.464609 c 0.255533,0 0.464607,0.05194 0.464607,0.115428 0,0.232918 -0.960771,2.262055 -1.19042,2.514155 -0.223532,0.245383 -0.325833,0.260072 -1.811847,0.260072 -1.070837,0 -1.619334,-0.04439 -1.713643,-0.138705 z m 3.906808,0.07517 c 0,-0.03495 0.07937,-0.216993 0.176348,-0.404556 l 0.176347,-0.341016 h 1.441853 c 1.7455025,0 1.9647775,-0.208391 0.26939,-0.256021 -1.447174,-0.04067 -1.552597,-0.132922 -1.145368,-1.002364 0.198273,-0.423328 0.365704,-0.61314 0.618581,-0.701294 0.308992,-0.107717 3.5486313,-0.181049 3.5486313,-0.08033 0,0.02228 -0.0571,0.204351 -0.126891,0.404556 l -0.1268939,0.364006 h -1.426695 c -0.8264524,0 -1.4567564,0.04863 -1.4981344,0.115583 -0.04559,0.07378 0.302761,0.115583 0.962854,0.115583 0.8365043,0 1.0851174,0.04115 1.3000654,0.215215 0.2652041,0.214749 0.2653361,0.216368 0.06095,0.751501 -0.3212209,0.841105 -0.4372809,0.882666 -2.4651874,0.882666 -0.971229,0 -1.765865,-0.02857 -1.765865,-0.06354 z m -4.212532,-3.317362 c 0.133929,-0.436861 0.291544,-0.549034 0.771469,-0.549034 0.393294,0 0.448399,0.02952 0.377286,0.202277 -0.04581,0.111254 -0.109446,0.293296 -0.141432,0.404553 -0.04417,0.153633 -0.181874,0.202277 -0.572607,0.202277 -0.480065,0 -0.509116,-0.01738 -0.434716,-0.260073 z M -35.693173,28.915961 c -0.04237,-0.04237 -0.07515,-1.173679 -0.07281,-2.513998 l 0.0043,-2.436938 1.700655,-1.360615 c 0.935352,-0.748342 1.8957,-1.52059 2.134095,-1.716105 l 0.433448,-0.355486 v 4.230101 4.230098 h -2.061281 c -1.133711,0 -2.095963,-0.03468 -2.138342,-0.07706 z m 5.702245,-4.75946 V 19.31998 l 0.569764,-0.480438 c 0.313378,-0.264239 0.593418,-0.480438 0.622319,-0.480438 0.02887,0 0.559898,0.625593 1.179999,1.390204 0.620101,0.764616 1.276304,1.515456 1.458235,1.668536 l 0.330774,0.278334 v 3.648418 3.648422 h -2.080548 -2.080543 z m 5.663712,1.261814 v -3.574697 l 0.323909,-0.161591 c 0.178157,-0.08887 1.049383,-0.751706 1.936067,-1.472967 0.886686,-0.721256 1.677171,-1.360904 1.756636,-1.421438 0.115069,-0.08767 0.144484,0.939839 0.144484,5.047664 v 5.157732 h -2.080548 -2.080548 z m 5.69154,-2.22995 0.02997,-5.804647 2.021628,-1.650647 c 1.111892,-0.907858 2.061143,-1.650647 2.109447,-1.650647 0.0483,0 0.08781,3.354883 0.08781,7.455295 v 7.455299 h -2.139413 -2.139406 z m 5.635884,-2.27761 v -8.082269 l 0.776956,-0.644902 c 0.720449,-0.598 0.80661,-0.638567 1.184758,-0.557787 0.516871,0.110416 1.4520413,0.112014 1.9393154,0.0035 l 0.375657,-0.08379 v 8.723841 8.723855 h -2.1383454 -2.138341 v -8.082298 z m -24.069312,1.775273 c -0.34236,-0.185757 -0.499179,-0.587577 -0.393554,-1.008404 0.06979,-0.278097 8.174593,-6.984508 8.675155,-7.178355 0.538012,-0.208358 0.792872,4.23e-4 2.375868,1.947907 0.854826,1.051562 1.598184,1.911928 1.651901,1.911928 0.05373,0 2.518552,-1.972721 5.477414,-4.383828 l 5.37974,-4.3838341 0.638873,0.6388741 c 0.621556,0.621556 0.63301,0.644526 0.4225,0.847469 -0.861602,0.830621 -11.776622,9.593041 -11.949694,9.593041 -0.464369,0 -0.799518,-0.315641 -2.291902,-2.158466 -1.393142,-1.720295 -1.560441,-1.887936 -1.733788,-1.737355 -0.81792,0.710523 -7.207403,5.864738 -7.394244,5.964731 -0.309087,0.165422 -0.473369,0.155137 -0.858269,-0.05372 z M -4.7061276,13.87931 c -0.111048,-0.02468 -0.6974329,-0.600233 -1.303075,-1.279013 -1.1970941,-1.341648 -1.292723,-1.599871 -0.743598,-2.007903 0.2040361,-0.151613 0.368396,-0.190571 0.5358151,-0.127017 0.1328259,0.05041 0.7155728,0.619254 1.2949928,1.264073 0.83039,0.924108 1.0534981,1.245455 1.0534981,1.517361 0,0.458267 -0.3687281,0.736691 -0.837633,0.632499 z m -6.2131164,-3.481219 c -2.587791,-0.852 -3.449267,-3.8157001 -1.678776,-5.7754209 0.933073,-1.0327992 2.6631534,-1.414835 3.8952185,-0.860144 0.7599069,0.342124 1.5245998,1.0885908 1.8419829,1.7980819 0.372931,0.8336661 0.3710879,2.1067119 -0.0043,2.885359 -0.3328929,0.6907199 -1.0238869,1.3866259 -1.703511,1.71563 -0.5672418,0.274598 -1.8446604,0.403108 -2.3507284,0.236494 z M -18.81897,9.132022 c -0.249473,-0.2756691 -0.244147,-0.746661 0.01096,-0.9706689 0.2507,-0.2201212 3.071512,-0.8276061 3.427754,-0.738193 0.364314,0.09143 0.564394,0.5647639 0.395461,0.9355359 -0.152289,0.334237 -0.101617,0.315322 -1.85629,0.6928869 -1.618918,0.348352 -1.731314,0.3529232 -1.977908,0.08044 z M -3.5217375,8.635683 c -1.1718952,-0.1740101 -1.4830351,-0.260854 -1.647103,-0.4597299 -0.2679562,-0.3248181 -0.255248,-0.491866 0.06581,-0.865128 l 0.268092,-0.3116691 1.648432,0.23798 c 1.7500541,0.2526541 2.0920721,0.4015089 2.0920721,0.9105249 0,0.3503581 -0.389737,0.7376962 -0.722414,0.7179752 -0.143037,-0.0084 -0.910238,-0.1119621 -1.7048921,-0.2299531 z M -16.513888,4.307763 c -1.644043,-0.897132 -1.687274,-0.9308489 -1.687274,-1.3160031 0,-0.4107919 0.26725,-0.6991069 0.648026,-0.6991069 0.280294,0 2.569286,1.1438479 2.964038,1.481179 0.251469,0.2148911 0.26264,0.7536669 0.02061,0.9956609 -0.299857,0.2998592 -0.742157,0.194885 -1.945431,-0.4617299 z m 10.6804303,0.1810221 c -0.2546678,-0.254663 -0.289084,-0.4849191 -0.119766,-0.8012941 0.162378,-0.303399 2.7029881,-1.857182 3.0367052,-1.857182 0.5358499,0 0.8491699,0.641924 0.5217429,1.068924 -0.209789,0.2735889 -2.7615879,1.8207249 -3.00304,1.8207249 -0.1124609,0 -0.3084981,-0.1040238 -0.4356421,-0.2311728 z M -12.6753,2.205961 c -0.220025,-0.256245 -1.249177,-2.84487062 -1.249177,-3.14204903 0,-0.52955357 0.81814,-0.79418197 1.185115,-0.38332337 0.234376,0.2624003 1.242192,2.7757853 1.242192,3.0978924 0,0.544498 -0.821661,0.842637 -1.17813,0.42748 z m 3.7609763,-0.213275 c -0.19045,-0.290661 -0.1806728,-0.348518 0.3151992,-1.86545122 0.5498399,-1.68203488 0.7603469,-1.97330298 1.32393,-1.83185168 0.5824548,0.1461857 0.5908509,0.4800658 0.05301,2.10761539 -0.2699149,0.81680721 -0.5700699,1.57612751 -0.667004,1.68737851 -0.268818,0.308515 -0.7916439,0.258691 -1.025153,-0.0977 z"
         id="path1441" />
    </clipPath>
    <linearGradient
       id="rect8192_1_"
       gradientUnits="userSpaceOnUse"
       x1="-111.7225"
       y1="241.8037"
       x2="-111.9427"
       y2="255.82561"
       gradientTransform="matrix(1.1258452,0,0,-1.1125121,264.49713,351.09111)">
      <stop
         offset="0"
         style="stop-color:#358C7B"
         id="stop3427" />
      <stop
         offset="0.5256"
         style="stop-color:#33A65E"
         id="stop3429" />
    </linearGradient>
    <linearGradient
       id="rect8199_1_"
       gradientUnits="userSpaceOnUse"
       x1="-123.8913"
       y1="223.6279"
       x2="-99.772499"
       y2="235.9171"
       gradientTransform="matrix(1.1258452,0,0,-1.1125121,264.49713,351.09111)">
      <stop
         offset="0"
         style="stop-color:#222B90"
         id="stop3433" />
      <stop
         offset="1"
         style="stop-color:#367B99"
         id="stop3435" />
    </linearGradient>
    <linearGradient
       id="rect8206_1_"
       gradientUnits="userSpaceOnUse"
       x1="-208.4319"
       y1="210.77251"
       x2="-185.03191"
       y2="210.77251"
       gradientTransform="matrix(1.1258452,0,0,-1.1125121,264.49713,351.09111)">
      <stop
         offset="0"
         style="stop-color:#FF9900"
         id="stop3439" />
      <stop
         offset="1"
         style="stop-color:#FF8000"
         id="stop3441" />
    </linearGradient>
    <linearGradient
       id="rect8213_1_"
       gradientUnits="userSpaceOnUse"
       x1="-180.1319"
       y1="210.77251"
       x2="-156.7319"
       y2="210.77251"
       gradientTransform="matrix(1.1258452,0,0,-1.1125121,264.49713,351.09111)">
      <stop
         offset="0"
         style="stop-color:#FF8000"
         id="stop3445" />
      <stop
         offset="1"
         style="stop-color:#CC1953"
         id="stop3447" />
    </linearGradient>
    <linearGradient
       id="rect8220_1_"
       gradientUnits="userSpaceOnUse"
       x1="-151.83189"
       y1="210.77251"
       x2="-128.4319"
       y2="210.77251"
       gradientTransform="matrix(1.1258452,0,0,-1.1125121,264.49713,351.09111)">
      <stop
         offset="0"
         style="stop-color:#CC1953"
         id="stop3451" />
      <stop
         offset="1"
         style="stop-color:#241284"
         id="stop3453" />
    </linearGradient>
    <linearGradient
       id="rect8227_1_"
       gradientUnits="userSpaceOnUse"
       x1="-123.5596"
       y1="210.77251"
       x2="-100.1596"
       y2="210.77251"
       gradientTransform="matrix(1.1258452,0,0,-1.1125121,264.49713,351.09111)">
      <stop
         offset="0"
         style="stop-color:#222B90"
         id="stop3457" />
      <stop
         offset="1"
         style="stop-color:#3559A6"
         id="stop3459" />
    </linearGradient>
    <linearGradient
       id="rect8234_1_"
       gradientUnits="userSpaceOnUse"
       x1="-152.75549"
       y1="226.0811"
       x2="-127.5083"
       y2="233.4639"
       gradientTransform="matrix(1.1258452,0,0,-1.1125121,264.49713,351.09111)">
      <stop
         offset="0"
         style="stop-color:#CC1953"
         id="stop3463" />
      <stop
         offset="1"
         style="stop-color:#241284"
         id="stop3465" />
    </linearGradient>
    <linearGradient
       id="rect8241_1_"
       gradientUnits="userSpaceOnUse"
       x1="-180.9648"
       y1="234.33411"
       x2="-155.899"
       y2="225.2108"
       gradientTransform="matrix(1.1258452,0,0,-1.1125121,264.49713,351.09111)">
      <stop
         offset="2.669841e-03"
         style="stop-color:#FFCC00"
         id="stop3469" />
      <stop
         offset="0.9999"
         style="stop-color:#CE1938"
         id="stop3471" />
    </linearGradient>
    <linearGradient
       id="rect8248_1_"
       gradientUnits="userSpaceOnUse"
       x1="-178.1651"
       y1="257.75391"
       x2="-158.6987"
       y2="239.791"
       gradientTransform="matrix(1.1258452,0,0,-1.1125121,264.49713,351.09111)">
      <stop
         offset="2.669841e-03"
         style="stop-color:#FFD100"
         id="stop3475" />
      <stop
         offset="1"
         style="stop-color:#FD5A22"
         id="stop3477" />
    </linearGradient>
  </defs>
  <g
     inkscape:groupmode="layer"
     id="layer3"
     inkscape:label="drawing">
    <path
       id="path1204"
       style="fill:none;stroke:#000000;stroke-width:12;stroke-linecap:round;stroke-linejoin:round;stroke-opacity:1"
       d="M 96 22 A 74 74 0 0 0 22 96 A 74 74 0 0 0 39.527344 143.75 L 96 96 L 86.283203 169.2793 A 74 74 0 0 0 96 170 A 74 74 0 0 0 170 96 A 74 74 0 0 0 96 22 z "
       transform="scale(0.26458333)" />
    <path
       id="path1207"
       style="fill:none;stroke:#000000;stroke-width:12;stroke-linecap:round;stroke-linejoin:round;stroke-opacity:1"
       d="M 96 51.310547 A 44.69 44.69 0 0 0 51.310547 96 A 44.69 44.69 0 0 0 61.912109 124.82227 L 96 96 L 90.128906 140.27539 A 44.69 44.69 0 0 0 96 140.68945 A 44.69 44.69 0 0 0 140.68945 96 A 44.69 44.69 0 0 0 96 51.310547 z "
       transform="scale(0.26458333)" />
    <path
       id="path1223"
       style="fill:none;stroke:#000000;stroke-width:12;stroke-linecap:round;stroke-linejoin:round;stroke-opacity:1"
       d="M 96 72.484375 A 23.515 23.515 0 0 0 72.484375 96 A 23.515 23.515 0 0 0 78.048828 111.17773 L 96 96 L 92.917969 119.24609 A 23.515 23.515 0 0 0 96 119.51562 A 23.515 23.515 0 0 0 119.51562 96 A 23.515 23.515 0 0 0 96 72.484375 z "
       transform="scale(0.26458333)" />
    <circle
       style="fill:#000000;fill-opacity:1;stroke:none;stroke-width:4.27502;stroke-linecap:round;stroke-linejoin:round;stroke-opacity:0.505813"
       id="path3257"
       cx="93.862488"
       cy="83.912506"
       transform="matrix(0.74268648,0,0,0.74268648,-59.607247,-31.422632)"
       r="2.1375103" />
    <circle
       style="fill:#000000;fill-opacity:1;stroke:none;stroke-width:4.27502;stroke-linecap:round;stroke-linejoin:round;stroke-opacity:0.505813"
       id="path3257-7"
       cx="93.862488"
       cy="83.912506"
       r="2.1375103"
       transform="matrix(0.74268648,0,0,0.74268648,-37.943425,-51.130622)" />
    <circle
       style="fill:#000000;fill-opacity:1;stroke:none;stroke-width:4.27502;stroke-linecap:round;stroke-linejoin:round;stroke-opacity:0.505813"
       id="path3257-9"
       cx="93.862488"
       cy="83.912506"
       r="2.1375103"
       transform="matrix(0.74268648,0,0,0.74268648,-53.447816,-40.812624)" />
    <circle
       style="fill:#000000;fill-opacity:1;stroke:none;stroke-width:4.27502;stroke-linecap:round;stroke-linejoin:round;stroke-opacity:0.505813"
       id="path3257-2"
       cx="93.862488"
       cy="83.912506"
       r="2.1375103"
       transform="matrix(0.74268648,0,0,0.74268648,-36.501226,-35.333184)" />
    <circle
       style="fill:#000000;fill-opacity:1;stroke:none;stroke-width:4.27502;stroke-linecap:round;stroke-linejoin:round;stroke-opacity:0.505813"
       id="path3257-0"
       cx="93.862488"
       cy="83.912506"
       r="2.1375103"
       transform="matrix(0.74268648,0,0,0.74268648,-40.535498,-26.899991)" />
  </g>
</svg>

<svg width="192" height="192" viewBox="0 0 50.8 50.8" xmlns="http://www.w3.org/2000/svg"><path style="fill:none;stroke:#000;stroke-width:12;stroke-linecap:round;stroke-linejoin:round;stroke-opacity:1" d="M96 22a74 74 0 0 0-74 74 74 74 0 0 0 17.527 47.75L96 96l-9.717 73.28A74 74 0 0 0 96 170a74 74 0 0 0 74-74 74 74 0 0 0-74-74z" transform="scale(.26458)"/><path style="fill:none;stroke:#000;stroke-width:12;stroke-linecap:round;stroke-linejoin:round;stroke-opacity:1" d="M96 51.31A44.69 44.69 0 0 0 51.31 96a44.69 44.69 0 0 0 10.602 28.822L96 96l-5.871 44.275a44.69 44.69 0 0 0 5.871.414A44.69 44.69 0 0 0 140.69 96 44.69 44.69 0 0 0 96 51.31z" transform="scale(.26458)"/><path style="fill:none;stroke:#000;stroke-width:12;stroke-linecap:round;stroke-linejoin:round;stroke-opacity:1" d="M96 72.484A23.515 23.515 0 0 0 72.484 96a23.515 23.515 0 0 0 5.565 15.178L96 96l-3.082 23.246a23.515 23.515 0 0 0 3.082.27A23.515 23.515 0 0 0 119.516 96 23.515 23.515 0 0 0 96 72.484z" transform="scale(.26458)"/><circle style="fill:#000;fill-opacity:1;stroke:none;stroke-width:4.27502;stroke-linecap:round;stroke-linejoin:round;stroke-opacity:.505813" cx="93.862" cy="83.913" transform="matrix(.74269 0 0 .74269 -59.607 -31.423)" r="2.138"/><circle style="fill:#000;fill-opacity:1;stroke:none;stroke-width:4.27502;stroke-linecap:round;stroke-linejoin:round;stroke-opacity:.505813" cx="93.862" cy="83.913" r="2.138" transform="matrix(.74269 0 0 .74269 -37.943 -51.13)"/><circle style="fill:#000;fill-opacity:1;stroke:none;stroke-width:4.27502;stroke-linecap:round;stroke-linejoin:round;stroke-opacity:.505813" cx="93.862" cy="83.913" r="2.138" transform="matrix(.74269 0 0 .74269 -53.448 -40.813)"/><circle style="fill:#000;fill-opacity:1;stroke:none;stroke-width:4.27502;stroke-linecap:round;stroke-linejoin:round;stroke-opacity:.505813" cx="93.862" cy="83.913" r="2.138" transform="matrix(.74269 0 0 .74269 -36.501 -35.333)"/><circle style="fill:#000;fill-opacity:1;stroke:none;stroke-width:4.27502;stroke-linecap:round;stroke-linejoin:round;stroke-opacity:.505813" cx="93.862" cy="83.913" r="2.138" transform="matrix(.74269 0 0 .74269 -40.535 -26.9)"/></svg>
